fs/data_bar_vertical_add_24_filled.svg

<svg viewBox="0 0 24 24" fill="none" xmlns="http://www.w3.org/2000/svg" height="1em" width="1em">
  <path d="M14.5037 4.75187C14.5037 3.23205 13.2717 2 11.7519 2C10.2321 2 9 3.23205 9 4.75187V19.2504C9 20.7702 10.2321 22.0023 11.7519 22.0023C12.0725 22.0023 12.3804 21.9474 12.6666 21.8466C11.6305 20.6951 11 19.1714 11 17.5005C11 14.9913 12.4218 12.8141 14.5037 11.7308V4.75187ZM21.5037 12.3796C20.4002 11.5155 19.0102 11.0005 17.5 11.0005C16.9837 11.0005 16.4815 11.0607 16 11.1744V9.75187C16 8.23205 17.2321 7 18.7519 7C20.2717 7 21.5037 8.23205 21.5037 9.75187V12.3796ZM4.75187 12C6.27169 12 7.50374 13.2321 7.50374 14.7519V19.2504C7.50374 20.7702 6.27169 22.0023 4.75187 22.0023C3.23205 22.0023 2 20.7702 2 19.2504V14.7519C2 13.2321 3.23205 12 4.75187 12ZM23 17.5005C23 14.4629 20.5376 12.0005 17.5 12.0005C14.4624 12.0005 12 14.4629 12 17.5005C12 20.5381 14.4624 23.0005 17.5 23.0005C20.5376 23.0005 23 20.5381 23 17.5005ZM18.0006 18.0005L18.0011 20.504C18.0011 20.7801 17.7773 21.004 17.5011 21.004C17.225 21.004 17.0011 20.7801 17.0011 20.504L17.0006 18.0005H14.4961C14.22 18.0005 13.9961 17.7766 13.9961 17.5005C13.9961 17.2244 14.22 17.0005 14.4961 17.0005H17.0005L17 14.4998C17 14.2236 17.2239 13.9998 17.5 13.9998C17.7761 13.9998 18 14.2236 18 14.4998L18.0005 17.0005H20.503C20.7792 17.0005 21.003 17.2244 21.003 17.5005C21.003 17.7766 20.7792 18.0005 20.503 18.0005H18.0006Z" fill="#212121"/>
</svg>

<svg viewBox="0 0 24 24" fill="none" xmlns="http://www.w3.org/2000/svg" height="1em" width="1em">
  <path d="M14.504 4.752a2.752 2.752 0 1 0-5.504 0V19.25a2.752 2.752 0 0 0 3.667 2.597 6.5 6.5 0 0 1 1.837-10.116V4.75Zm7 7.628A6.52 6.52 0 0 0 16 11.175V9.751a2.752 2.752 0 0 1 5.504 0v2.628ZM4.752 12a2.752 2.752 0 0 1 2.752 2.752v4.498a2.752 2.752 0 0 1-5.504 0v-4.498A2.752 2.752 0 0 1 4.752 12ZM23 17.5a5.5 5.5 0 1 0-11 0 5.5 5.5 0 0 0 11 0Zm-5 .5.001 2.504a.5.5 0 1 1-1 0V18h-2.505a.5.5 0 0 1 0-1H17v-2.5a.5.5 0 1 1 1 0V17h2.503a.5.5 0 1 1 0 1h-2.502Z" fill="#212121"/>
</svg>
